!!!!SEGMENT: pl-kk--kk-i-389--010-003_anonim--missa-no-10-gloria.krn
!!!cenid: 17xx:2524
!!!COM: Anonim
!!!COM-rismID: pe30004985
!!!CDT:
!!!CNT:
!!!OPR: [Missa] No. 10.
!!!OTL: Gloria
!!!OMV: 003
!!!PDT:
!!!AGN: Sacred; Mass
!!!YEC: Copyright 2022 Narodowy Instytut Fryderyka Chopina (https://polishscores.org)
!!!YEM: License CC-BY-4.0 (https://creativecommons.org/licenses/by/4.0)
!!!SMS-siglum: PL-Kk
!!!SMS-shelfmark: Kk.I.389
!!!SMS-variant:
!!!SMS-altvar:
!!!SMS-shelfwork: 010-003 M
!!!NIFC-rismSourceID: 1001146182
!!!NIFC-rismChildID: 1001147254
!!!NIFC-islandoraID: pl-kk:6976
!!!URL-pdf-islandora: https://repozytorium.nifc.pl/islandora/object/pl-kk%3A6976/datastream/PDF/view
!!!URL-scan: https://polish.musicsources.pl/pl/lokalizacje/galeria/rekopisy/5999/1 @EN{Scan on Polish Music Sources Website} @PL{Skany w portalu Dziedzictwo Muzyki Polskiej w otwartym dostępie}
!!!IIIF:
!!!ONB-nifc: UWAGA: S – skan 17-18, A – 36-37, T – 55-56, B – 74-75. Części Mszy: Rorate, Kyrie, Gloria, Graduale, Sanctus, Benedictus, Agnus, Dona.
!!!AIN: 1 alto 1 bass 1 soprn 1 tenor
!!!key:
**kern	**text	**kern	**text	**kern	**text	**kern	**text
*part4	*part4	*part3	*part3	*part2	*part2	*part1	*part1
*staff4	*staff4	*staff3	*staff3	*staff2	*staff2	*staff1	*staff1
*I"Basso.	*	*I"Tenore.	*	*I"Alto.	*	*I"Soprano.	*
*I'B	*	*I'T	*	*I'A	*	*I'S	*
*ICvox	*	*ICvox	*	*ICvox	*	*ICvox	*
*Ibass	*	*Itenor	*	*Ialto	*	*Isoprn	*
*clefF4	*	*clefC4	*	*clefC3	*	*clefC1	*
*k[b-]	*	*k[b-]	*	*k[b-]	*	*k[b-]	*
*F:	*	*F:	*	*F:	*	*F:	*
*M2/2	*	*M2/2	*	*M2/2	*	*M2/2	*
*met(C.)	*	*met(C.)	*	*met(C.)	*	*met(C.)	*
=1	=1	=1	=1	=1	=1	=1	=1
*	*	*	*	*	*	*all\right:global	*
*2\right	*	*2\right	*	*2\right	*	*2\right	*
2F\	Et	2c\	Et	2f\	Et	2a\	Et
4E\	.	2c\	in	4c\	.	4g\	.
4C/	in	.	.	4e\	in	4cc\	in
=2	=2	=2	=2	=2	=2	=2	=2
2F\	ter-	2c\	ter-	2f\	ter-	2a\	ter-
4E\	.	2c\	-ra	4c\	.	4g\	.
4C/	-ra	.	.	4e\	-ra	4cc\	-ra
=3	=3	=3	=3	=3	=3	=3	=3
4F\	pax	2c\	pax	2f\	pax	2a\	pax
4G\	.	.	.	.	.	.	.
4A\	ho-	2c\	ho-	2f\	ho-	2a\	ho-
4F\	.	.	.	.	.	.	.
=4	=4	=4	=4	=4	=4	=4	=4
2c\	-mi-	2c\	-mi-	2e\	-mi-	2g\	-mi-
4c\	-ni-	4c\	-ni-	4e\	-ni-	4g\	-ni-
4B-\	-bus	4c\	-bus	4e\	-bus	4g\	-bus
=5	=5	=5	=5	=5	=5	=5	=5
2A\	bo-	2c\	bo-	2f\	bo-	2a\	bo-
2F\	-ne	2c\	-ne	2f\	-ne	2a\	-ne
!LO:LB:g=original	!	!	!	!	!	!	!
=6	=6	=6	=6	=6	=6	=6	=6
2.E\	vo-	2.c\	vo-	2.g\	vo-	2.cc\	vo-
4E\	-lun-	4c\	-lun-	4g\	-lun-	4b-\	-lun-
=7	=7	=7	=7	=7	=7	=7	=7
4F\	-ta-	4c\	-ta-	4f\	-ta-	4a\	-ta-
4F\	-tis	4c\	-tis	4f\	-tis	8f/	-tis
.	.	.	.	.	.	8f/	Lau-
!	!	!	!	!	!	!LO:LB:g=original	!
2r	.	2r	.	2r	.	4f/	-da-
.	.	.	.	.	.	8f/	-mus
.	.	.	.	.	.	8f/	lau-
!	!	!LO:LB:g=original	!	!LO:LB:g=original	!	!	!
=8	=8	=8	=8	=8	=8	=8	=8
!	!	!LO:TX:a:t=3.	!	!LO:TX:a:t=1.	!	!	!
00r	.	0r	.	1r	.	4f/	-da-
.	.	.	.	.	.	4g/	-mus
.	.	.	.	.	.	4a/	te,
.	.	.	.	.	.	4r	.
=9-	=9	=9-	=9	=9	=9	=9	=9
.	.	.	.	4r	.	4r	.
.	.	.	.	4f\	be-	4a\	be-
.	.	.	.	4f\	-ne-	4a\	-ne-
.	.	.	.	4f\	-di-	4a\	-di-
=10-	=10	=10	=10	=10	=10	=10	=10
.	.	1r	.	4f\	-ci-	4a\	-ci-
.	.	.	.	4g\	-mus	4b-\	-mus
.	.	.	.	2a\	te	4cc\	te
.	.	.	.	.	.	4r	.
=11-	=11	=11	=11	=11	=11	=11	=11
.	.	4r	.	4r	.	4r	.
.	.	2F/	a-	2a\	a-	2cc\	a-
.	.	4F/	-do-	4a\	-do-	4cc\	-do-
=12-	=12	=12	=12	=12	=12	=12	=12
1r	.	4G/	-ra-	4a\	-ra-	4cc\	-ra-
.	.	4G/	-mus	4g\	-mus	4b-\	-mus
.	.	2A\	te	2f\	te	2a\	te,
!	!	!	!	!	!	!LO:BB:g=original	!
=13	=13	=13	=13	=13	=13	=13	=13
4r	.	4r	.	4r	.	4r	.
4F\	glo-	4A\	glo-	4a\	glo-	4cc\	glo-
4F\	-ri-	4A\	-ri-	4a\	-ri-	4cc\	-ri-
4F\	-fi-	4A\	-fi-	4a\	-fi-	4cc\	-fi-
=14	=14	=14	=14	=14	=14	=14	=14
4F\	-ca-	4A\	-ca-	4a\	-ca-	4cc\	-ca-
4G\	-mus	4B-\	-mus	4g\	-mus	4b-\	-mus
2A\	te,	2c\	te	4f\	te	4a\	te,
.	.	.	.	4r	.	4r	.
!	!	!	!	!LO:LB:g=original	!	!	!
=15	=15	=15	=15	=15	=15	=15	=15
4F\	gra-	2c\	Gra-	2f\	Gra-	2a\	Gra-
4G\	.	.	.	.	.	.	.
4A\	-ti-	4c\	-ti-	4f\	-ti-	4a\	-ti-
4F\	-as	4c\	-as	4f\	-as	4a\	-as
=16	=16	=16	=16	=16	=16	=16	=16
2c\	a-	2c\	a-	2e\	a-	2g\	a-
4c\	-gi-	4c\	-gi-	4e\	-gi-	4g\	-gi-
4B-\	-mus	4c\	-mus	4e\	-mus	4g\	-mus
!LO:LB:g=original	!	!LO:PB:g=original	!	!	!	!	!
=17	=17	=17	=17	=17	=17	=17	=17
4A\	ti-	4c\	ti-	4f\	ti-	4a\	ti-
4A\	-bi	4c\	-bi	4f\	-bi	4a\	-bi
4F\	prop-	4c\	prop-	4f\	prop-	4a\	prop-
4F\	-ter	4c\	-ter	4f\	-ter	4a\	-ter
=18	=18	=18	=18	=18	=18	=18	=18
4C/	mag-	4c\	mag-	2f\	mag-	2.g\	mag-
4C/	-nam	4c\	-nam	.	.	.	.
4C/	glo-	4c\	glo-	4e\	.	.	.
8C/	-ri-	8c\	-ri-	4e\	-nam	8cc\L	-nam
8C/	-am	8c\	-am	.	.	8b-\J	.
=19	=19	=19	=19	=19	=19	=19	=19
4F\	tu-	4c\	tu-	4f\	ma-	4a\	ma-
4F\	-am	4c\	-am,	2a\	.	4cc\	.
!	!	!	!	!	!	!LO:LB:g=original	!
2r	.	2r	.	.	.	4cc\	-gnam
.	.	.	.	4b-\	-gnam	4dd\	.
=20	=20	=20	=20	=20	=20	=20	=20
!LO:TX:t=P:problem:nadmiarowa pauza w tenore	!	!LO:TX:a:t=3.	!	!LO:TX:t=P:problem:nadmiarowa pauza w tenore	!	!LO:TX:t=P:problem:nadmiarowa pauza w tenore	!
1ryy	.	0r	.	1ryy	.	1ryy	.
=21	=21	=21-	=21	=21	=21	=21	=21
1r	.	.	.	4g\	glo-	4b-\	glo-
.	.	.	.	4a\	.	4cc\	.
.	.	.	.	4f\	-ri-	4a\	-ri-
.	.	.	.	4g\	-am	4b-\	-am
=22	=22	=22-	=22	=22	=22	=22	=22
4r	.	1r	.	1e	tu-	1g	tu-
4c\	Do-	.	.	.	.	.	.
4c\	-mi-	.	.	.	.	.	.
4c\	-ne	.	.	.	.	.	.
!	!	!	!	!LO:PB:g=original	!	!	!
=23	=23	=23	=23	=23	=23	=23	=23
2A\	De-	4r	.	4f\	-am,	4a\	-am,
.	.	4f\	Do-	4a\	Do-	4ff\	Do-
2F\	-us,	4f\	-mi-	4a\	-mi-	4ff\	-mi-
.	.	4f\	-ne	4a\	-ne	4ff\	-ne
!LO:PB:g=original	!	!	!	!	!	!	!
=24	=24	=24	=24	=24	=24	=24	=24
4r	.	2e\	De-	2b-\	De-	2dd\	De-
2B-\	De-	.	.	.	.	.	.
.	.	2f\	-us	2b-\	-us	2dd\	-us
4B-\	-us	.	.	.	.	.	.
=25	=25	=25	=25	=25	=25	=25	=25
2c\	Rex	4r	.	2g\	Rex	4r	.
.	.	2c\	Rex	.	.	2cc\	Rex
4A\	.	.	.	4a\	.	.	.
4F\	ce-	4c\	ce-	4a\	ce-	4cc\	ce-
!	!	!LO:LB:g=original	!	!	!	!	!
=26	=26	=26	=26	=26	=26	=26	=26
2E\	-les-	2c\	-le-	2g\	-les-	2cc\	-le-
2F\	-tis	4A/	.	2f\	-tis	4a\	.
.	.	4F/	-stis	.	.	4f/	-stis
=27	=27	=27	=27	=27	=27	=27	=27
2C/	De-	2.c\	De-	2e\	De-	2g\	De-
2C/	-us	.	.	2e\	-us	2a\	-us
.	.	4B-\	-us	.	.	.	.
!	!	!	!	!	!	!LO:LB:g=original	!
=28	=28	=28	=28	=28	=28	=28	=28
4C/	Pa-	4c\	Pa-	4f\	Pa-	4g\	Pa-
8C/	-ter	8c\	-ter	8f\	-ter	8g\	-ter
8C/	om-	8c\	om-	8f\	om-	8g\	om-
4C/	-ni-	4c\	-ni-	4e\	-ni-	4g\	-ni-
4C/	-po-	4c\	-po-	4e\	-po-	4g\	-po-
=29	=29	=29	=29	=29	=29	=29	=29
2F\	-tens	2c\	-tens	2f\	-tens	2f/	-tens,
!	!	!	!	!LO:LB:g=original	!	!	!
4r	.	4r	.	4r	.	4r	.
4F\	Do-	4c\	Do-	4f\	Do-	4a\	Do-
=30	=30	=30	=30	=30	=30	=30	=30
4E\	.	2c\	-mi-	4c\	.	4g\	-mi-
4F\	.	.	.	4f\	.	4a\	.
!LO:LB:g=original	!	!	!	!	!	!	!
4E\	-mi-	2c\	-ne	4c\	-mi-	4g\	-ne
4F\	-ne	.	.	4f\	-ne	4a\	.
=31	=31	=31	=31	=31	=31	=31	=31
4E\	Fi-	2c\	Fi-	4c\	Fi-	4g\	Fi-
4F\	.	.	.	4f\	.	4a\	.
4E\	.	2c\	-li	4c\	.	4g\	-li
4F\	-li	.	.	4f\	-li	4a\	.
=32	=32	=32	=32	=32	=32	=32	=32
2G\	u-	2c\	u-	2e\	u-	2b-\	u-
2F\	-ni-	2c\	-ni-	2f\	-ni-	2a\	-ni-
=33	=33	=33	=33	=33	=33	=33	=33
2.C/	-ge-	2.c\	-ge-	2f\	-ge-	2.g\	-ge-
.	.	.	.	4.e\	.	.	.
4C/	-ni-	4c\	-ni-	.	.	8cc\L	-ni-
.	.	.	.	8e\	-ni-	8b-\J	.
!	!	!LO:LB:g=original	!	!	!	!	!
=34	=34	=34	=34	=34	=34	=34	=34
2F\	-te,	2c\	-te	2f\	-te	2a\	-te,
4r	.	4r	.	4r	.	4r	.
4F\	Je-	4c\	Je-	4f\	Je-	4a\	Je-
!	!	!	!	!	!	!LO:LB:g=original	!
=35	=35	=35	=35	=35	=35	=35	=35
4E\	.	2c\	.	4c\	.	4g\	.
4F\	.	.	.	4f\	.	4a\	.
4E\	.	2c\	-su	4c\	-su	4g\	-su
4F\	-su	.	.	4f\	.	4a\	.
=36	=36	=36	=36	=36	=36	=36	=36
4E\	Je-	2c\	Je-	4c\	Je-	4g\	Je-
4F\	.	.	.	4f\	.	4a\	.
!	!	!	!	!LO:LB:g=original	!	!	!
4E\	.	2c\	-su	4c\	.	4g\	-su
4F\	-su	.	.	4f\	-su	4a\	.
!LO:LB:g=original	!	!	!	!	!	!	!
=37	=37	=37	=37	=37	=37	=37	=37
2G\	Je-	1c	Chri-	2e\	Chri-	2b-\	Chri-
2F\	-su	.	.	2f\	.	2a\	.
=38	=38	=38	=38	=38	=38	=38	=38
!LO:TX:t=P:problem:pojedyncza kreska taktowa	!	!	!	!	!	!LO:N:vis=1.	!
1C	Chri-	2.c\	.	2.f\	-ste,	1g	-ste,
.	.	4r	.	4r	.	.	.
=39	=39	=39	=39	=39||	=39||	=39||	=39||
!	!	!	!	!LO:TX:a:t=1.	!	!	!
4F\	-ste,	4A\	-ste	1r	.	4f/	Quo-
4r	.	4r	.	.	.	4f/	-ni-
2r	.	2r	.	.	.	4a\	-am
.	.	.	.	.	.	4cc\	tu
=40	=40	=40	=40	=40	=40	=40	=40
4r	.	4r	.	4a\	Quo-	1ff	so-
4F\	tu	4c\	Quo-	4a\	-ni-	.	.
4B-\	so-	4d\	.	4b-\	-am	.	.
4d\	-lus	4f\	-ni-	4b-\	tu	.	.
=41	=41	=41	=41	=41	=41	=41	=41
4A\	sa-	4c\	-am	4f\	so-	1ff	-lus
4F\	.	4c\	tu	4a\	.	.	.
4B-\	-ctus,	4d\	so-	2b-\	-lus	.	.
4d\	tu	4f\	-lus	.	.	.	.
=42	=42	=42	=42	=42	=42	=42	=42
4A\	so	2c\	san-	4f\	san-	2ff\	san-
4F\	.	.	.	4a\	.	.	.
4B-\	.	4d\	.	2b-\	-ctus,	2ff\	-ctus,
4d\	.	4f\	-ctus	.	.	.	.
!	!	!LO:LB:g=original	!	!	!	!	!
=43	=43	=43	=43	=43	=43	=43	=43
2c\	Do-	2c\	tu	2a\	tu	2ff\	tu
!	!	!	!	!	!	!LO:LB:g=original	!
2C/	-mi-	4c\	so-	4.g\	so-	4.ee\	so-
.	.	4B-\	-lus	.	.	.	.
.	.	.	.	8g\	-lus	8ee\	-lus
!LO:LB:g=original	!	!	!	!LO:LB:g=original	!	!	!
=44	=44	=44	=44	=44	=44	=44	=44
4F\	-nus,	4A/	Do-	4f\	Do-	4ff\	Do-
4F\	tu	4F/	.	4a\	.	4cc\	.
4B-\	so-	4A/	-mi-	4b-\	-mi-	4dd\	-mi-
4d\	-lus,	4c\	-nus,	4b-\	-nus	4ff\	-nus,
=45	=45	=45	=45	=45	=45	=45	=45
4A\	so-	2g\	so-	4f\	so-	2cc\	so-
4F\	.	.	.	4a\	.	.	.
4B-\	-lus	4f\	-lus	4b-\	-lus	4dd\	-lus
4d\	al-	4f\	al-	4b-\	al-	4ff\	al-
=46	=46	=46	=46	=46	=46	=46	=46
4A\	-tis-	4f\	-tis-	4f\	-tis-	2cc\	-tis-
4F\	-si-	4f\	-si-	4a\	-si-	.	.
4B-\	-mus	2f\	-mus	2b-\	-mus	4dd\	-si-
4d\	Je-	.	.	.	.	4ff\	-mus
=47	=47	=47	=47	=47	=47	=47	=47
2c\	-su	4f\	Je-	2a\	Je-	2.cc\	Je-
.	.	4f\	-su	.	.	.	.
2C/	Chri-	2e\	Chri-	2g\	-su	.	.
.	.	.	.	.	.	4cc\	-su
=48	=48	=48	=48	=48	=48	=48	=48
4F\	-ste,	4f\	-ste	4a\	Je-	4cc\	Je-
4r	.	4r	.	4a\	.	4ff\	.
2r	.	2r	.	4g\	-su	4ee\	.
.	.	.	.	4f\	.	4dd\	-su
=49	=49	=49	=49	=49	=49	=49	=49
!LO:TX:a:t=1.	!	!LO:TX:a:t=1.	!	!	!	!	!
1r	.	1r	.	4e\	Je-	4cc\	Je-
.	.	.	.	4d\	.	4b-\	.
.	.	.	.	4c\	.	4a\	.
.	.	.	.	4B-/	-su	4g\	-su
!	!	!LO:LB:g=original	!	!LO:LB:g=original	!	!LO:LB:g=original	!
=50	=50	=50	=50	=50	=50	=50	=50
4r	.	4r	.	4c\	Je-	4f\	Je-
4A\	Je-	4f\	Je-	4f\	.	4cc\	-su
4G\	.	4e\	.	4b-\	-su	2cc\	Chri-
4F\	-su	4f\	-su	4a\	.	.	.
!LO:LB:g=original	!	!	!	!	!	!	!
=51	=51	=51	=51	=51	=51	=51	=51
4E\	Chri-	4c\	Chri-	4g\	Chri-	2cc\	-ste,
4D\	.	4d\	.	4f\	.	.	.
4C\	-ste	4e\	-ste,	4e\	-ste,	2cc\	Cum
4E\	Cum	4c\	Cum	4g\	Cum	.	.
=52	=52	=52	=52	=52	=52	=52	=52
2F\	san-	2f\	san-	2a\	san-	2cc\	san-
2D\	-cto	2f\	-cto	2a\	-cto	2ff\	-cto
=53	=53	=53	=53	=53	=53	=53	=53
2BB-/	spi-	2d\	spi-	2b-\	spi-	2gg\	spi-
4.C/	.	4.c\	.	4.g\	.	4.ee\	.
8C/	-ri-	8c\	-ri-	8g\	-ri-	8ee\	-ri-
=54	=54	=54	=54	=54	=54	=54	=54
4F\	-tu,	4c\	-tu,	2a\	-tu	4ff\	-tu
4A\	Cum	4f\	cum	.	.	4r	.
4G\	san-	4e\	san-	2r	.	2r	.
4F\	-cto	4d\	-cto	.	.	.	.
=55	=55	=55	=55	=55	=55	=55	=55
!	!	!	!	!LO:TX:a:t=1.	!	!	!
4E\	Spi-	4c\	spi-	1r	.	1r	.
4D\	.	4B-\	.	.	.	.	.
4C/	.	4A\	.	.	.	.	.
4BB-/	-ri-	4G/	-ri-	.	.	.	.
=56	=56	=56	=56	=56	=56	=56	=56
4AA/	-tu	4F/	-tu,	4r	.	4r	.
4A\	in	4f\	in	4f\	in	4cc\	in
!	!	!LO:LB:g=original	!	!	!	!	!
4G\	glo	4e\	glo-	8b-\	glo-	8cc\	glo-
.	.	.	.	8a\	-ri-	8cc\	-ri-
4F\	ria	4f\	-ria	4a\	-a	4cc\	-a
!LO:LB:g=original	!	!	!	!LO:LB:g=original	!	!LO:LB:g=original	!
=57	=57	=57	=57	=57	=57	=57	=57
4E\	De-	4c\	De-	4g\	De-	2cc\	De-
4D\	.	4d\	.	4f\	.	.	.
4C\	.	4e\	.	2g\	-i	2cc\	-i
4E\	-i	4c\	-i	.	.	.	.
=58	=58	=58	=58	=58	=58	=58	=58
2F\	Pat-	2f\	Pat-	2a\	Pat-	2cc\	Pat-
2D/	-ris	2f\	-ris	2a\	-ris	2ff\	-ris
=59	=59	=59	=59	=59	=59	=59	=59
2.BB-/	a-	2d\	a-	2b-\	a-	2gg\	a-
.	.	4.c\	.	2g\	.	2ee\	.
4BB-/	-men	.	.	.	.	.	.
.	.	8c\	-men	.	.	.	.
=60	=60	=60	=60	=60	=60	=60	=60
1C	a-	2.c\	a-	2a\	-men	2ff\	-men
.	.	.	.	2g\	a-	2ee\	a-
.	.	4B-\	.	.	.	.	.
=61	=61	=61	=61	=61	=61	=61	=61
2FF/	-men.	2A\	-men.	2f\	-men.	2ff\	-men.
2r	.	2r	.	2r	.	2r	.
==	==	==	==	==	==	==	==
*-	*-	*-	*-	*-	*-	*-	*-
!!!system-decoration: [(s1,s2,s3,s4)]
!!!ENC: Filip Voros
!!!END: 2023-11-14
!!!ENC: Leszek Kubiak
!!!END: 2024-01-22
